X:1
T:Title
%%score { ( 1 4 ) | ( 2 3 ) }
L:1/8
Q:1/4=99
M:6/8
K:D
V:1 treble nm="Grand Piano"
V:4 treble 
V:2 bass 
V:3 bass 
V:1
 FFF GGG | A2 F [DB]3 | [CE][CE][CE] [CE]F[A,EG] | [FA]3 F3 | FFF GGG | A2 F B3 | %6
w: O.~R.~Barrows * * * * *||||||
 [Gc][GB][GA] AB[Ec] | [Fd]3- [Fd]2 d | dcd edB | [GB]2 [FA] [DF]2 [DA] | %10
w: ||||
 [CA][CE][DF] [EG]2 [CGB] | [GB]2 [FA] .[FA]3 | dcd edB | [GB]2 [FA] [FA]3 | cBA [CA][DB][Ec] | %15
w: |||||
 [Fd]6 | A6 | B6 | A3 A3 | A6 | A6 | B6 | [CA]3 [EG]3 | F6 | A6 | B6 | A3 A3 | A6 | A6 | B6 | %30
w: |||||||||||||||
 [CA]3 [EA]3 | D6 |] %32
w: ||
V:2
 [D,A,D][D,A,D][D,A,D] [E,A,C][E,A,C][E,A,C] | [F,A,D]2 [D,D] G,,3 | [A,,A,][A,,A,][A,,A,] z DA,, | %3
 z3 D3 | [D,A,D][D,A,D][D,A,D] [E,A,C][E,A,C][E,A,C] | [F,A,D]2 [D,D] [G,D]3 | %6
 z3[K:treble] .C3[K:bass] | [D,A,]3- [D,A,]2[K:treble] [G,B,G] | %8
 [G,B,G][G,A,G][G,B,G] [G,CG][G,G]-[G,DG] | [D,D]2 [D,D] [D,A,]2 [D,F,] | %10
 [A,,E,][A,,A,][A,,A,] [A,,A,]2 A,, | [D,D]2 [D,D] .[D,D]3 | %12
 [G,B,G][G,A,G][G,B,G] [G,CG][G,B,G][G,DG] | [D,D]2 [D,D] [D,A,]3 | %14
 [A,E][A,D][A,C] [A,,A,]2 [A,,A,] | [D,A,]6 | [D,F,D][D,F,][D,F,] [D,F,][D,F,][D,F,] | %17
 [G,,G,][G,,G,][G,,G,] [G,,G,]3 | [A,,E,][A,,E,][A,,E,] [A,,F,]2 [A,,E,] | %19
 [A,,D,]2 [A,,G,] [D,F,]3 | [D,F,D][D,F,][D,F,] [D,F,][D,F,][D,F,] | %21
 [G,,G,][G,,G,][G,,G,] [G,,G,]3 | [A,,E,]3 [A,,A,]3 | [D,A,D]6 | %24
 [D,F,D][D,F,][D,F,] [D,F,][D,F,][D,F,] | [G,,G,][G,,G,][G,,G,] [G,,G,]3 | %26
 [A,,E,][A,,E,][A,,E,] [A,,F,]2 [A,,E,] | [A,,D,]2 [A,,G,] [D,F,]3 | %28
 [D,F,D][D,F,][D,F,] [D,F,][D,F,][D,F,] | [G,,G,][G,,G,][G,,G,] [G,,G,]3 | [A,,E,]3 [A,,G,]3 | %31
 [D,F,]6 |] %32
V:3
 x6 | x6 | z3 .[A,,A,]3 | D,6 | x6 | x6 | %6
 [E,A,][E,A,][E,A,][K:treble] [A,G]-[A,DG][K:bass][A,,A,] | x5[K:treble] x | z3 z .B,2 | x6 | x6 | %11
 x6 | x6 | x6 | x6 | x6 | x6 | x6 | x6 | x6 | x6 | x6 | x6 | x6 | x6 | x6 | x6 | x6 | x6 | x6 | %30
 x6 | x6 |] %32
V:4
 x6 | x6 | x6 | A,6 | x6 | x6 | x6 | x6 | x6 | x6 | x6 | x6 | x6 | x6 | x6 | x6 | z DD DDD | %17
 DDD D3 | CCC D2 G | F2 E D3 | z DD DDD | DDD D3 | x6 | x6 | z DD DDD | DDD D3 | CCC D2 G | %27
 F2 E D3 | z DD DDD | DDD D3 | x6 | x6 |] %32

